X:142
T:Duncan’s Hornpipe TS.142
T:Tumbler’s Hornpipe,aka TS.142
T:Washington Hornpipe,aka TS.142
M:C|
L:1/8
Q:1/2=90
S:Thomas Sands’ MS,1810,Lincolnshire
N:Slight variations from TS.115
R:.hornpipe
O:England;Lincolnshire
Z:vmp.Ruairidh Greig, 2011
K:Bb
Bcde fBAB|gBaB bBAB|GBFBV EBDB|Ccec BAGF|
Bcde fBAB|gBaB bBaB|GeFd EcDB|ecBAB2B2:|
|:fBAB gBAB|gaba gfgd|edcB cBcd|edcB BAGF|
Bcde fBAB|gBaB bBAB|GeFd EcDB|ecBA B2B2:|]

